packages/dnb-ui-lib/assets/icons/file.svg

<svg width="16" height="17" viewBox="0 0 16 17" fill="none" xmlns="http://www.w3.org/2000/svg">
<path fill-rule="evenodd" clip-rule="evenodd" d="M11.9159 1.5C11.9725 1.49997 12.0269 1.52206 12.0674 1.56156L12.0675 1.56161L13.9714 3.41983L13.9718 3.42017C14.0136 3.46098 14.0373 3.51696 14.0373 3.57543V3.5755V14.2873C14.0373 14.4071 13.9402 14.5042 13.8203 14.5042H2.21695C2.09713 14.5042 2 14.4071 2 14.2873V1.71695C2 1.59713 2.09713 1.5 2.21695 1.5H11.9155H11.9159ZM13.1146 0.487614C12.7938 0.174842 12.3635 -0.000142964 11.9155 8.76398e-08H11.9153H2.21695C1.2687 8.76398e-08 0.5 0.768705 0.5 1.71695V14.2873C0.5 15.2355 1.2687 16.0042 2.21695 16.0042H13.8203C14.7686 16.0042 15.5373 15.2355 15.5373 14.2873V3.57543V3.57535C15.5373 3.11259 15.3504 2.66944 15.0191 2.34635L15.0189 2.34616L15.0188 2.34602L13.1149 0.487873L13.1146 0.487614ZM4.17991 5.08478C3.90377 5.08478 3.67991 5.30863 3.67991 5.58478C3.67991 5.86092 3.90377 6.08478 4.17991 6.08478H11.9155C12.1917 6.08478 12.4155 5.86092 12.4155 5.58478C12.4155 5.30863 12.1917 5.08478 11.9155 5.08478H4.17991ZM3.67991 8.48559C3.67991 8.20945 3.90377 7.98559 4.17991 7.98559H11.9155C12.1917 7.98559 12.4155 8.20945 12.4155 8.48559C12.4155 8.76173 12.1917 8.98559 11.9155 8.98559H4.17991C3.90377 8.98559 3.67991 8.76173 3.67991 8.48559ZM4.17991 10.8864C3.90377 10.8864 3.67991 11.1103 3.67991 11.3864C3.67991 11.6625 3.90377 11.8864 4.17991 11.8864H8.04771C8.32385 11.8864 8.54771 11.6625 8.54771 11.3864C8.54771 11.1103 8.32385 10.8864 8.04771 10.8864H4.17991Z" fill="black"/>
</svg>

<svg width="16" height="16" viewBox="0 0 16 17" fill="none" xmlns="http://www.w3.org/2000/svg"><path fill-rule="evenodd" clip-rule="evenodd" d="M11.916 1.5c.056 0 .11.022.151.062l1.904 1.858c.043.041.066.097.066.155v10.712c0 .12-.097.217-.217.217H2.217A.217.217 0 012 14.287V1.717c0-.12.097-.217.217-.217h9.698zM13.115.488a1.717 1.717 0 00-1.2-.488H2.217C1.269 0 .5.769.5 1.717v12.57c0 .948.769 1.717 1.717 1.717H13.82c.949 0 1.717-.769 1.717-1.717V3.575c0-.462-.187-.906-.518-1.229L13.115.488zM4.18 5.085a.5.5 0 100 1h7.736a.5.5 0 100-1H4.18zm-.5 3.4a.5.5 0 01.5-.5h7.736a.5.5 0 110 1H4.18a.5.5 0 01-.5-.5zm.5 2.401a.5.5 0 000 1h3.868a.5.5 0 000-1H4.18z" fill="#000"/></svg>
